X:66
T:Keep Your Feet Still
R:
M:4/4
K:D
DF | A A A B A F2 F | G A B-c d2 cB | A A A A B A F D |
E6 D-F | A A A B A F E D | G A B c d2 c B | A A c B a ^G =G E | D6 ||
F G | G G G G G G A G | G F F>F F2 D F | A A A A B A F>D |
E6 F G | A A A B A F E D | G A B c d2 c-B | A A c B A ^G =G>E | D6 ||
